sprites/streets-v8/_svg/beer-11.svg

<?xml version="1.0" encoding="UTF-8" standalone="no"?>
<svg
   xmlns:dc="http://purl.org/dc/elements/1.1/"
   xmlns:cc="http://creativecommons.org/ns#"
   xmlns:rdf="http://www.w3.org/1999/02/22-rdf-syntax-ns#"
   xmlns:svg="http://www.w3.org/2000/svg"
   xmlns="http://www.w3.org/2000/svg"
   id="svg2"
   width="19"
   height="19"
   viewBox="0 0 19 19"
   version="1.1">
  <metadata
     id="metadata14">
    <rdf:RDF>
      <cc:Work
         rdf:about="">
        <dc:format>image/svg+xml</dc:format>
        <dc:type
           rdf:resource="http://purl.org/dc/dcmitype/StillImage" />
      </cc:Work>
    </rdf:RDF>
  </metadata>
  <defs
     id="defs12" />
  <ellipse
     id="ellipse4"
     ry="9.5"
     rx="9.5"
     cy="9.5"
     cx="9.5"
     style="fill:#ffffff;stroke:none;" />
  <ellipse
     id="ellipse6"
     rx="8.5"
     ry="8.5"
     cy="9.5"
     cx="9.5"
     style="fill:#ab9483;stroke:none;" />
  <g
     id="g8"
     transform="translate(4,4)">
      <defs     id="defs4766" />  <metadata     id="metadata4769">    <rdf:RDF>      <cc:Work         rdf:about="">        <dc:format>image/svg+xml</dc:format>        <dc:type           rdf:resource="http://purl.org/dc/dcmitype/StillImage" />        <dc:title />      </cc:Work>    </rdf:RDF>  </metadata>  <path     id="path10577"     d="M 5.5 0.125 C 4.25 0.125 3 0.25 2.5 0.5 C 2.5 0.5 2 1.5 2 3 C 2 5.5 3.5 6.5 3 10.5 C 3.5 11 7.5 11 8 10.5 C 7.5 6.5 9 5.5 9 3 C 9 1.5 8.5 0.5 8.5 0.5 C 8 0.25 6.75 0.125 5.5 0.125 z M 5.40625 0.875 C 6.4375 0.875 7.5 1 8 1.25 L 8.25 2.25 C 7 3 4 3 2.75 2.25 L 3 1.25 C 3.375 1 4.375 0.875 5.40625 0.875 z M 4.0507812 9.1621094 C 4.4941773 9.294656 4.9927851 9.3645417 5.5 9.3652344 C 6.0072149 9.3645417 6.5058227 9.294656 6.9492188 9.1621094 C 6.9597923 9.3509193 6.974156 9.793248 7 10 C 6.5 10.5 4.5 10.5 4 10 C 4.025844 9.793248 4.0402076 9.3509193 4.0507812 9.1621094 z "     style="fill:#ffffff;fill-rule:evenodd;stroke:none;stroke-width:1px;stroke-linecap:butt;stroke-linejoin:miter;stroke-opacity:1" />
  </g>
</svg>

<?xml version="1.0" encoding="utf-8"?>
<!-- Generator: Adobe Illustrator 17.1.0, SVG Export Plug-In . SVG Version: 6.00 Build 0)  -->
<!DOCTYPE svg PUBLIC "-//W3C//DTD SVG 1.1//EN" "http://www.w3.org/Graphics/SVG/1.1/DTD/svg11.dtd">
<svg version="1.1"
	 id="svg2" xmlns:svg="http://www.w3.org/2000/svg" xmlns:cc="http://creativecommons.org/ns#" xmlns:dc="http://purl.org/dc/elements/1.1/" xmlns:rdf="http://www.w3.org/1999/02/22-rdf-syntax-ns#"
	 xmlns="http://www.w3.org/2000/svg" xmlns:xlink="http://www.w3.org/1999/xlink" x="0px" y="0px" width="19px" height="19px"
	 viewBox="0 0 19 19" enable-background="new 0 0 19 19" xml:space="preserve">
<ellipse id="ellipse4" fill="#FFFFFF" cx="9.5" cy="9.5" rx="9.5" ry="9.5"/>
<ellipse id="ellipse6" fill="#AB9483" cx="9.5" cy="9.5" rx="8.5" ry="8.5"/>
<g id="g8" transform="translate(4,4)">
	<path id="path10577" fill="#FFFFFF" d="M5.5,0.1c-1.2,0-2.5,0.1-3,0.4c0,0-0.5,1-0.5,2.5c0,2.5,1.5,3.5,1,7.5c0.5,0.5,4.5,0.5,5,0
		c-0.5-4,1-5,1-7.5c0-1.5-0.5-2.5-0.5-2.5C8,0.2,6.8,0.1,5.5,0.1z M5.4,0.9c1,0,2.1,0.1,2.6,0.4l0.2,1C7,3,4,3,2.8,2.2l0.2-1
		C3.4,1,4.4,0.9,5.4,0.9z M4.1,9.2C4.5,9.3,5,9.4,5.5,9.4s1-0.1,1.4-0.2C7,9.4,7,9.8,7,10c-0.5,0.5-2.5,0.5-3,0C4,9.8,4,9.4,4.1,9.2
		z"/>
</g>
</svg>
